X:72
T:CLTCLDN1-  Clout the Cauldron
Q:1/4=120
L:1/4
M:C
K:G mixolydian
c/ c/ c/ c/ c/ c/ c/ e/|d/ c/ B/ A/ BA/ G/|\
G/ c/ c/ c/ c/ c/ c/ e/|d/ c/ B/ A/ B A/ G/|\
d/ d/ d/ e/ a/ g/ e/ c/|d/ d/ d/ e/ ag/ e/|\
e/ d/ d/ e/ a/ g/ e/ c/|e/ d/ d/ e/ ag|]

